src/48x48/places/folder-gruvbox-original-orange-android.svg

<svg xmlns="http://www.w3.org/2000/svg" width="48" height="48" version="1">
 <rect style="opacity:0.2" width="40" height="26" x="4" y="17" rx="2" ry="2"/>
 <path style="fill:#af3a03" d="M 4,34 C 4,35.108 4.892,36 6,36 H 42 C 43.108,36 44,35.108 44,34 V 12 C 44,10.892 43.108,10 42,10 H 24 C 21,10 20,6 17,6 H 6 C 4.892,6 4,6.892 4,8"/>
 <rect style="opacity:0.2" width="40" height="26" x="4" y="15" rx="2" ry="2"/>
 <rect style="fill:#F1D8AF" width="36" height="16" x="6" y="13" rx="2" ry="2"/>
 <rect style="fill:#fe8019" width="40" height="26" x="4" y="16" rx="2" ry="2"/>
 <path style="opacity:0.1;fill:#F1D8AF" d="M 6,6 C 4.892,6 4,6.892 4,8 V 9 C 4,7.892 4.892,7 6,7 H 17 C 20,7 21,11 24,11 H 42 C 43.108,11 44,11.892 44,13 V 12 C 44,10.892 43.108,10 42,10 H 24 C 21,10 20,6 17,6 Z"/>
 <path style="fill:#46352B" d="m17.792969 23.990234a0.80008001 0.80008001 0 0 0-0.611328 1.316407l1.435547 1.755859c-1.449157 1.302677-2.418991 3.122492-2.615235 5.167969-0.036746 0.769972 0.775391 0.769531 0.775391 0.769531h14.425781s0.835451-1.68e-4 0.794922-0.808594c-0.204754-2.0309-1.171962-3.836209-2.613281-5.130859l1.433593-1.753906a0.80008001 0.80008001 0 0 0-0.634765-1.314453 0.80008001 0.80008001 0 0 0-0.603516 0.300781l-1.492187 1.826172c-1.198382-0.706725-2.592035-1.119141-4.085938-1.119141-1.49457 0-2.891106 0.411831-4.089844 1.119141l-1.492187-1.826172a0.80008001 0.80008001 0 0 0-0.626953-0.302735z"/>
 <circle style="fill:#fe8019" cx="20" cy="30" r="1"/>
 <circle style="fill:#fe8019" cx="-28" cy="30" r="1" transform="scale(-1,1)"/>
</svg>

<?xml version="1.0" encoding="UTF-8"?>
<svg width="48" height="48" version="1" xmlns="http://www.w3.org/2000/svg">
 <rect x="4" y="17" width="40" height="26" rx="2" ry="2" opacity=".2"/>
 <path d="m4 34c0 1.108 0.892 2 2 2h36c1.108 0 2-0.892 2-2v-22c0-1.108-0.892-2-2-2h-18c-3 0-4-4-7-4h-11c-1.108 0-2 0.892-2 2" fill="#af3a03"/>
 <rect x="4" y="15" width="40" height="26" rx="2" ry="2" opacity=".2"/>
 <rect x="6" y="13" width="36" height="16" rx="2" ry="2" fill="#F1D8AF"/>
 <rect x="4" y="16" width="40" height="26" rx="2" ry="2" fill="#fe8019"/>
 <path d="m6 6c-1.108 0-2 0.892-2 2v1c0-1.108 0.892-2 2-2h11c3 0 4 4 7 4h18c1.108 0 2 0.892 2 2v-1c0-1.108-0.892-2-2-2h-18c-3 0-4-4-7-4z" fill="#F1D8AF" opacity=".1"/>
 <path d="m17.793 23.99a0.80008 0.80008 0 0 0-0.61133 1.3164l1.4355 1.7559c-1.4492 1.3027-2.419 3.1225-2.6152 5.168-0.036746 0.76997 0.77539 0.76953 0.77539 0.76953h14.426s0.83545-1.68e-4 0.79492-0.80859c-0.20475-2.0309-1.172-3.8362-2.6133-5.1309l1.4336-1.7539a0.80008 0.80008 0 0 0-0.63476-1.3145 0.80008 0.80008 0 0 0-0.60352 0.30078l-1.4922 1.8262c-1.1984-0.70672-2.592-1.1191-4.0859-1.1191-1.4946 0-2.8911 0.41183-4.0898 1.1191l-1.4922-1.8262a0.80008 0.80008 0 0 0-0.62695-0.30274z" fill="#46352B"/>
 <circle cx="20" cy="30" r="1" fill="#fe8019"/>
 <circle transform="scale(-1,1)" cx="-28" cy="30" r="1" fill="#fe8019"/>
</svg>
